src/activities/hanoi_real/hanoi_real.svg

<!--Created with Inkscape (http://www.inkscape.org/)--><svg xmlns:dc="http://purl.org/dc/elements/1.1/" xmlns:cc="http://creativecommons.org/ns#" xmlns:rdf="http://www.w3.org/1999/02/22-rdf-syntax-ns#" xmlns="http://www.w3.org/2000/svg" xmlns:sodipodi="http://sodipodi.sourceforge.net/DTD/sodipodi-0.dtd" xmlns:inkscape="http://www.inkscape.org/namespaces/inkscape" width="100" height="100" sodipodi:version="0.32" inkscape:version="0.91 r13725" version="1.0" sodipodi:docname="hanoi_real.svg"><sodipodi:namedview pagecolor="#ffffff" bordercolor="#666666" borderopacity="1.0" inkscape:pageopacity="0.0" inkscape:pageshadow="2" inkscape:zoom="3.4674036" inkscape:cx="12.791786" inkscape:cy="41.082615" inkscape:document-units="px" inkscape:current-layer="layer1" height="100px" width="100px" inkscape:window-width="1024" inkscape:window-height="705" inkscape:window-x="-8" inkscape:window-y="-8" showgrid="false" inkscape:window-maximized="1"/><metadata><rdf:RDF><cc:Work><dc:format>image/svg+xml</dc:format><dc:type rdf:resource="http://purl.org/dc/dcmitype/StillImage"/><dc:title/><dc:date>2017</dc:date><dc:creator><cc:Agent><dc:title>Timothée Giet and Harpreet S</dc:title></cc:Agent></dc:creator><cc:license rdf:resource="http://creativecommons.org/licenses/by-sa/4.0/"/></cc:Work><cc:License rdf:about="http://creativecommons.org/licenses/by-sa/4.0/"><cc:permits rdf:resource="http://creativecommons.org/ns#Reproduction"/><cc:permits rdf:resource="http://creativecommons.org/ns#Distribution"/><cc:requires rdf:resource="http://creativecommons.org/ns#Notice"/><cc:requires rdf:resource="http://creativecommons.org/ns#Attribution"/><cc:permits rdf:resource="http://creativecommons.org/ns#DerivativeWorks"/><cc:requires rdf:resource="http://creativecommons.org/ns#ShareAlike"/></cc:License></rdf:RDF></metadata><g inkscape:label="Calque 1" inkscape:groupmode="layer"><path style="fill:none;fill-opacity:.75;fill-rule:evenodd;stroke:#000;stroke-linecap:butt;stroke-linejoin:miter;stroke-opacity:1;stroke-width:1,0" d="m8 13077 17 68221L8 13077l82 535605M18 13077l7 68221-7-68221 72 535605M28 13077l-3 68221 3-68221 62 535605M38 13077 25 81298l13-68221 52 535605M48 13077 25 81298l23-68221 42 535605M58 13077 25 81298l33-68221 32 535605M68 13077 25 81298l43-68221 22 535605M78 13077 25 81298l53-68221 12 535605M88 13077 25 81298l63-68221 2 535605m8-535605L25 81298l73-68221-8 535605M3 13077l27 68221 72 416194L30 81298M3 13077l37 68221 62 416194L40 81298M3 13077l47 68221 52 416194L50 81298M3 13077l57 68221 42 416194L60 81298M3 13077l67 68221 32 416194L70 81298M3 13077l77 68221 22 416194L80 81298M3 13077l87 68221 12 416194L90 81298"/><path style="fill:none;fill-opacity:.75;fill-rule:evenodd;stroke:#000;stroke-linecap:butt;stroke-linejoin:miter;stroke-opacity:1;stroke-width:1,0" d="m8 13077 17 68221L8 13077l82 535605M13 213077 25 81298 13 213077l77 335605M18 413077l7-331779-7 331779 72 135605m-67 64395 2-531779-2 531779 67-64395M28 813077 25 81298l3 731779 62-264395M34 13076l-9 68222 9-68222 56 535606M39 213076 25 81298l14 131778 51 335606M44 413076 25 81298l19 331778 46 135606m-41 64394L25 81298l24 531778 41-64394M54 813076 25 81298l29 731778 36-264394M60 13075 25 81298l35-68223 30 535607M65 213075 25 81298l40 131777 25 335607M70 413075 25 81298l45 331777 20 135607m-15 64393L25 81298l50 531777 15-64393M80 813075 25 81298l55 731777 10-264393M86 13074 25 81298l61-68224 4 535608m1-335608L25 81298l66 131776-1 335608m6-135608L25 81298l71 331776-6 135608m11 64392L25 81298l76 531776-11-64392M3 13077l27 68221 72 416194L30 81298M3 13077l37 68221 62 416194L40 81298M3 13077l47 68221 52 416194L50 81298M3 13077l57 68221 42 416194L60 81298M3 13077l67 68221 32 416194L70 81298M3 13077l77 68221 22 416194L80 81298M3 13077l87 68221 12 416194L90 81298"/><rect style="opacity:1;fill:#a75a27;fill-opacity:1;fill-rule:evenodd;stroke:#17761d;stroke-width:0;stroke-linecap:round;stroke-linejoin:bevel;stroke-miterlimit:4;stroke-dasharray:none;stroke-dashoffset:0;stroke-opacity:1" width="13.867224" height="80.756187" x="44.635574" y="8.4982986" rx="5.8943501" ry="4.5884099"/><rect style="opacity:1;fill:#e6945e;fill-opacity:1;fill-rule:evenodd;stroke:#17761d;stroke-width:0;stroke-linecap:round;stroke-linejoin:bevel;stroke-miterlimit:4;stroke-dasharray:none;stroke-dashoffset:0;stroke-opacity:1" width="9.7886286" height="75.861877" x="46.67487" y="10.945473" rx="5.8943501" ry="4.5884099"/><rect style="opacity:1;fill:#a75a27;fill-opacity:1;fill-rule:evenodd;stroke:#17761d;stroke-width:0;stroke-linecap:round;stroke-linejoin:bevel;stroke-miterlimit:4;stroke-dasharray:none;stroke-dashoffset:0;stroke-opacity:1" width="48.677727" height="13.465364" x="26.947624" y="79.161354" ry="4.1805592" rx="3.9540279"/><rect style="opacity:1;fill:#e6945e;fill-opacity:1;fill-rule:evenodd;stroke:#17761d;stroke-width:0;stroke-linecap:round;stroke-linejoin:bevel;stroke-miterlimit:4;stroke-dasharray:none;stroke-dashoffset:0;stroke-opacity:1" width="43.709167" height="10.220697" x="29.555424" y="80.702568" ry="2.7530453" rx="3.8550506"/><rect ry="4.5884099" rx="5.8943501" y="10.945473" x="46.67487" height="75.861877" width="9.7886286" style="opacity:1;fill:#e6945e;fill-opacity:1;fill-rule:evenodd;stroke:#17761d;stroke-width:0;stroke-linecap:round;stroke-linejoin:bevel;stroke-miterlimit:4;stroke-dasharray:none;stroke-dashoffset:0;stroke-opacity:1"/><rect style="opacity:1;fill:#9f6811;fill-opacity:1;fill-rule:evenodd;stroke:#17761d;stroke-width:0;stroke-linecap:round;stroke-linejoin:bevel;stroke-miterlimit:4;stroke-dasharray:none;stroke-dashoffset:0;stroke-opacity:1" width="42.621323" height="16.926167" x="29.376892" y="29.394611" ry="6.831646" rx="7.6247611"/><rect style="opacity:1;fill:#ffac27;fill-opacity:1;fill-rule:evenodd;stroke:#17761d;stroke-width:0;stroke-linecap:round;stroke-linejoin:bevel;stroke-miterlimit:4;stroke-dasharray:none;stroke-dashoffset:0;stroke-opacity:1" width="38.270943" height="12.847571" x="31.660233" y="31.331942" ry="4.5884137" rx="5.8943491"/><rect style="opacity:1;fill:#a11a17;fill-opacity:1;fill-rule:evenodd;stroke:#17761d;stroke-width:0;stroke-linecap:round;stroke-linejoin:bevel;stroke-miterlimit:4;stroke-dasharray:none;stroke-dashoffset:0;stroke-opacity:1" width="51.129128" height="16.926167" x="24.270161" y="45.580006" ry="6.831646" rx="7.6247616"/><rect style="opacity:1;fill:#f43732;fill-opacity:1;fill-rule:evenodd;stroke:#17761d;stroke-width:0;stroke-linecap:round;stroke-linejoin:bevel;stroke-miterlimit:4;stroke-dasharray:none;stroke-dashoffset:0;stroke-opacity:1" width="45.910355" height="12.847571" x="27.009296" y="47.517338" ry="4.5884137" rx="5.8943491"/><rect style="opacity:1;fill:#4a851f;fill-opacity:1;fill-rule:evenodd;stroke:#17761d;stroke-width:0;stroke-linecap:round;stroke-linejoin:bevel;stroke-miterlimit:4;stroke-dasharray:none;stroke-dashoffset:0;stroke-opacity:1" width="62.376736" height="16.926167" x="18.591763" y="62.222748" ry="6.831646" rx="7.6247621"/><rect style="opacity:1;fill:#83df39;fill-opacity:1;fill-rule:evenodd;stroke:#17761d;stroke-width:0;stroke-linecap:round;stroke-linejoin:bevel;stroke-miterlimit:4;stroke-dasharray:none;stroke-dashoffset:0;stroke-opacity:1" width="56.009918" height="12.847571" x="21.933453" y="64.16008" ry="4.5884137" rx="5.8943491"/></g></svg>

<?xml version="1.0" encoding="UTF-8" standalone="no"?>
<!-- Created with Inkscape (http://www.inkscape.org/) -->

<svg
   xmlns:dc="http://purl.org/dc/elements/1.1/"
   xmlns:cc="http://creativecommons.org/ns#"
   xmlns:rdf="http://www.w3.org/1999/02/22-rdf-syntax-ns#"
   xmlns:svg="http://www.w3.org/2000/svg"
   xmlns="http://www.w3.org/2000/svg"
   xmlns:sodipodi="http://sodipodi.sourceforge.net/DTD/sodipodi-0.dtd"
   xmlns:inkscape="http://www.inkscape.org/namespaces/inkscape"
   width="100"
   height="100"
   id="svg10790"
   sodipodi:version="0.32"
   inkscape:version="0.91 r13725"
   version="1.0"
   sodipodi:docname="hanoi_real.svg">
  <defs
     id="defs10792" />
  <sodipodi:namedview
     id="base"
     pagecolor="#ffffff"
     bordercolor="#666666"
     borderopacity="1.0"
     inkscape:pageopacity="0.0"
     inkscape:pageshadow="2"
     inkscape:zoom="3.4674036"
     inkscape:cx="12.791786"
     inkscape:cy="41.082615"
     inkscape:document-units="px"
     inkscape:current-layer="layer1"
     height="100px"
     width="100px"
     inkscape:window-width="1024"
     inkscape:window-height="705"
     inkscape:window-x="-8"
     inkscape:window-y="-8"
     showgrid="false"
     inkscape:window-maximized="1" />
  <metadata
     id="metadata10795">
    <rdf:RDF>
      <cc:Work
         rdf:about="">
        <dc:format>image/svg+xml</dc:format>
        <dc:type
           rdf:resource="http://purl.org/dc/dcmitype/StillImage" />
        <dc:title></dc:title>
        <dc:date>2017</dc:date>
        <dc:creator>
          <cc:Agent>
            <dc:title>Timothée Giet and Harpreet S</dc:title>
          </cc:Agent>
        </dc:creator>
        <cc:license
           rdf:resource="http://creativecommons.org/licenses/by-sa/4.0/" />
      </cc:Work>
      <cc:License
         rdf:about="http://creativecommons.org/licenses/by-sa/4.0/">
        <cc:permits
           rdf:resource="http://creativecommons.org/ns#Reproduction" />
        <cc:permits
           rdf:resource="http://creativecommons.org/ns#Distribution" />
        <cc:requires
           rdf:resource="http://creativecommons.org/ns#Notice" />
        <cc:requires
           rdf:resource="http://creativecommons.org/ns#Attribution" />
        <cc:permits
           rdf:resource="http://creativecommons.org/ns#DerivativeWorks" />
        <cc:requires
           rdf:resource="http://creativecommons.org/ns#ShareAlike" />
      </cc:License>
    </rdf:RDF>
  </metadata>
  <g
     inkscape:label="Calque 1"
     id="layer1"
     inkscape:groupmode="layer">
    <path
       style="fill:none;fill-opacity:0.75000000;fill-rule:evenodd;stroke:#000000;stroke-linecap:butt;stroke-linejoin:miter;stroke-opacity:1.0000000;stroke-width:1,000000pt"
       d="M 8,013077 25,081298 L 8,013077 90,548682 M 18,013077 25,081298 L 18,013077 90,548682 M 28,013077 25,081298 L 28,013077 90,548682 M 38,013077 25,081298 L 38,013077 90,548682 M 48,013077 25,081298 L 48,013077 90,548682 M 58,013077 25,081298 L 58,013077 90,548682 M 68,013077 25,081298 L 68,013077 90,548682 M 78,013077 25,081298 L 78,013077 90,548682 M 88,013077 25,081298 L 88,013077 90,548682 M 98,013077 25,081298 L 98,013077 90,548682 M 3,013077 30,081298 L 102,497492 30,081298 M 3,013077 40,081298 L 102,497492 40,081298 M 3,013077 50,081298 L 102,497492 50,081298 M 3,013077 60,081298 L 102,497492 60,081298 M 3,013077 70,081298 L 102,497492 70,081298 M 3,013077 80,081298 L 102,497492 80,081298 M 3,013077 90,081298 L 102,497492 90,081298 "
       id="path25447" />
    <path
       style="fill:none;fill-opacity:0.75000000;fill-rule:evenodd;stroke:#000000;stroke-linecap:butt;stroke-linejoin:miter;stroke-opacity:1.0000000;stroke-width:1,000000pt"
       d="M 8,013077 25,081298 L 8,013077 90,548682 M 13,213077 25,081298 L 13,213077 90,548682 M 18,413077 25,081298 L 18,413077 90,548682 M 23,613077 25,081298 L 23,613077 90,548682 M 28,813077 25,081298 L 28,813077 90,548682 M 34,013076 25,081298 L 34,013076 90,548682 M 39,213076 25,081298 L 39,213076 90,548682 M 44,413076 25,081298 L 44,413076 90,548682 M 49,613076 25,081298 L 49,613076 90,548682 M 54,813076 25,081298 L 54,813076 90,548682 M 60,013075 25,081298 L 60,013075 90,548682 M 65,213075 25,081298 L 65,213075 90,548682 M 70,413075 25,081298 L 70,413075 90,548682 M 75,613075 25,081298 L 75,613075 90,548682 M 80,813075 25,081298 L 80,813075 90,548682 M 86,013074 25,081298 L 86,013074 90,548682 M 91,213074 25,081298 L 91,213074 90,548682 M 96,413074 25,081298 L 96,413074 90,548682 M 101,613074 25,081298 L 101,613074 90,548682 M 3,013077 30,081298 L 102,497492 30,081298 M 3,013077 40,081298 L 102,497492 40,081298 M 3,013077 50,081298 L 102,497492 50,081298 M 3,013077 60,081298 L 102,497492 60,081298 M 3,013077 70,081298 L 102,497492 70,081298 M 3,013077 80,081298 L 102,497492 80,081298 M 3,013077 90,081298 L 102,497492 90,081298 "
       id="path25449" />
    <rect
       style="opacity:1;fill:#a75a27;fill-opacity:1;fill-rule:evenodd;stroke:#17761d;stroke-width:0;stroke-linecap:round;stroke-linejoin:bevel;stroke-miterlimit:4;stroke-dasharray:none;stroke-dashoffset:0;stroke-opacity:1"
       id="rect4206"
       width="13.867224"
       height="80.756187"
       x="44.635574"
       y="8.4982986"
       rx="5.8943501"
       ry="4.5884099" />
    <rect
       style="opacity:1;fill:#e6945e;fill-opacity:1;fill-rule:evenodd;stroke:#17761d;stroke-width:0;stroke-linecap:round;stroke-linejoin:bevel;stroke-miterlimit:4;stroke-dasharray:none;stroke-dashoffset:0;stroke-opacity:1"
       id="rect4206-1"
       width="9.7886286"
       height="75.861877"
       x="46.67487"
       y="10.945473"
       rx="5.8943501"
       ry="4.5884099" />
    <rect
       style="opacity:1;fill:#a75a27;fill-opacity:1;fill-rule:evenodd;stroke:#17761d;stroke-width:0;stroke-linecap:round;stroke-linejoin:bevel;stroke-miterlimit:4;stroke-dasharray:none;stroke-dashoffset:0;stroke-opacity:1"
       id="rect3347-0"
       width="48.677727"
       height="13.465364"
       x="26.947624"
       y="79.161354"
       ry="4.1805592"
       rx="3.9540279" />
    <rect
       style="opacity:1;fill:#e6945e;fill-opacity:1;fill-rule:evenodd;stroke:#17761d;stroke-width:0;stroke-linecap:round;stroke-linejoin:bevel;stroke-miterlimit:4;stroke-dasharray:none;stroke-dashoffset:0;stroke-opacity:1"
       id="rect3347-9-0"
       width="43.709167"
       height="10.220697"
       x="29.555424"
       y="80.702568"
       ry="2.7530453"
       rx="3.8550506" />
    <rect
       ry="4.5884099"
       rx="5.8943501"
       y="10.945473"
       x="46.67487"
       height="75.861877"
       width="9.7886286"
       id="rect4241"
       style="opacity:1;fill:#e6945e;fill-opacity:1;fill-rule:evenodd;stroke:#17761d;stroke-width:0;stroke-linecap:round;stroke-linejoin:bevel;stroke-miterlimit:4;stroke-dasharray:none;stroke-dashoffset:0;stroke-opacity:1" />
    <rect
       style="opacity:1;fill:#9f6811;fill-opacity:1;fill-rule:evenodd;stroke:#17761d;stroke-width:0;stroke-linecap:round;stroke-linejoin:bevel;stroke-miterlimit:4;stroke-dasharray:none;stroke-dashoffset:0;stroke-opacity:1"
       id="rect3347-8"
       width="42.621323"
       height="16.926167"
       x="29.376892"
       y="29.394611"
       ry="6.831646"
       rx="7.6247611" />
    <rect
       style="opacity:1;fill:#ffac27;fill-opacity:1;fill-rule:evenodd;stroke:#17761d;stroke-width:0;stroke-linecap:round;stroke-linejoin:bevel;stroke-miterlimit:4;stroke-dasharray:none;stroke-dashoffset:0;stroke-opacity:1"
       id="rect3347-9-1"
       width="38.270943"
       height="12.847571"
       x="31.660233"
       y="31.331942"
       ry="4.5884137"
       rx="5.8943491" />
    <rect
       style="opacity:1;fill:#a11a17;fill-opacity:1;fill-rule:evenodd;stroke:#17761d;stroke-width:0;stroke-linecap:round;stroke-linejoin:bevel;stroke-miterlimit:4;stroke-dasharray:none;stroke-dashoffset:0;stroke-opacity:1"
       id="rect3347-8-2"
       width="51.129128"
       height="16.926167"
       x="24.270161"
       y="45.580006"
       ry="6.831646"
       rx="7.6247616" />
    <rect
       style="opacity:1;fill:#f43732;fill-opacity:1;fill-rule:evenodd;stroke:#17761d;stroke-width:0;stroke-linecap:round;stroke-linejoin:bevel;stroke-miterlimit:4;stroke-dasharray:none;stroke-dashoffset:0;stroke-opacity:1"
       id="rect3347-9-1-0"
       width="45.910355"
       height="12.847571"
       x="27.009296"
       y="47.517338"
       ry="4.5884137"
       rx="5.8943491" />
    <rect
       style="opacity:1;fill:#4a851f;fill-opacity:1;fill-rule:evenodd;stroke:#17761d;stroke-width:0;stroke-linecap:round;stroke-linejoin:bevel;stroke-miterlimit:4;stroke-dasharray:none;stroke-dashoffset:0;stroke-opacity:1"
       id="rect3347-8-2-5"
       width="62.376736"
       height="16.926167"
       x="18.591763"
       y="62.222748"
       ry="6.831646"
       rx="7.6247621" />
    <rect
       style="opacity:1;fill:#83df39;fill-opacity:1;fill-rule:evenodd;stroke:#17761d;stroke-width:0;stroke-linecap:round;stroke-linejoin:bevel;stroke-miterlimit:4;stroke-dasharray:none;stroke-dashoffset:0;stroke-opacity:1"
       id="rect3347-9-1-0-5"
       width="56.009918"
       height="12.847571"
       x="21.933453"
       y="64.16008"
       ry="4.5884137"
       rx="5.8943491" />
  </g>
</svg>
